; generated by PrusaSlicer 2.7.0+win64 on 2024-09-10 at 11:12:49 UTC


;
;
; 

; external perimeters extrusion width = 0.60mm
; perimeters extrusion width = 0.60mm
; infill extrusion width = 0.50mm
; solid infill extrusion width = 0.45mm
; top infill extrusion width = 0.40mm
; first layer extrusion width = 0.80mm

; external perimeters extrusion width = 0.60mm
; perimeters extrusion width = 0.60mm
; infill extrusion width = 0.50mm
; solid infill extrusion width = 0.45mm
; top infill extrusion width = 0.40mm
; first layer extrusion width = 0.80mm

M73 P0 R123
M73 Q0 S129
M201 X5000 Y5000 Z200 E10000 ; sets maximum accelerations, mm/sec^2
M203 X200 Y200 Z30 E120 ; sets maximum feedrates, mm / sec
M204 S3000 T3000 ; sets acceleration (S) and retract acceleration (R), mm/sec^2
M205 X8.00 Y8.00 Z0.40 E4.50 ; sets the jerk limits, mm/sec
M205 S0 T0 ; sets the minimum extruding and travel feed rate, mm/sec

; printing object uberamp1-pasting-plate.stl id:0 copy 0
; stop printing object uberamp1-pasting-plate.stl id:0 copy 0

;TYPE:Custom
M862.3 P "MK3" ; printer model check
M862.1 P0.4 ; nozzle diameter check
M115 U3.12.1 ; tell printer latest fw version
G90 ; use absolute coordinates
M83 ; extruder relative mode
M104 S245 ; set extruder temp
M140 S85 ; set bed temp
M190 S85 ; wait for bed temp
M109 S245 ; wait for extruder temp
G28 W ; home all without mesh bed level
G80 ; mesh bed leveling

G1 Z0.2 F720
G1 Y-3 F1000 ; go outside print area
G92 E0
G1 X60 E9 F1000 ; intro line
G1 X100 E12.5 F1000 ; intro line

G92 E0
M221 S95

; Don't change E values below. Excessive value can damage the printer.

G21 ; set units to millimeters
G90 ; use absolute coordinates
M83 ; use relative distances for extrusion
M900 K0.08 ; Filament gcode LA 1.5
M900 K45 ; Filament gcode LA 1.0
M107
;LAYER_CHANGE
;Z:0.4
;HEIGHT:0.4
;BEFORE_LAYER_CHANGE
G92 E0.0
;0.4


G1 Z.4 F1800
M73 P0 R122
;AFTER_LAYER_CHANGE
;0.4
G1 E-.8 F18000
G1 X39.529 Y36.994 F10800
G1 Z.4 F1800
G1 E.8 F18000
M204 S3000
;TYPE:Skirt/Brim
;WIDTH:0.8
G1 F1440
G1 X41.58 Y34.84 E.35324
G1 X43.247 Y33.455 E.2574
G1 X45.04 Y32.24 E.25723
G1 X46.245 Y31.559 E.16439
G1 X48.185 Y30.657 E.25409
G1 X50.23 Y29.94 E.25737
G1 X52.066 Y29.48 E.22479
G1 X54.172 Y29.153 E.25312
G1 X55.56 Y29.049 E.16531
G1 X193.63 Y29.029 E16.39791
G1 X195.793 Y29.149 E.25728
G1 X197.666 Y29.426 E.22487
G1 X199.77 Y29.94 E.25723
G1 X201.059 Y30.365 E.16119
G1 X203.055 Y31.207 E.25728
G1 X204.725 Y32.099 E.22486
G1 X206.534 Y33.292 E.25736
G1 X208.217 Y34.656 E.25728
G1 X209.758 Y36.178 E.25723
G1 X210.645 Y37.206 E.16126
G1 X211.925 Y38.954 E.25731
G1 X213.027 Y40.819 E.25727
G1 X213.836 Y42.531 E.22488
G1 X214.579 Y44.566 E.25729
G1 X215.118 Y46.664 E.25726
G1 X215.448 Y48.797 E.25634
G1 X215.571 Y51.105 E.2745
G1 X215.536 Y160.115 E12.94659
G1 X215.31 Y162.269 E.25722
G1 X214.874 Y164.392 E.2574
G1 X214.233 Y166.461 E.25725
G1 X213.391 Y168.457 E.25728
G1 X212.358 Y170.362 E.25737
G1 X211.306 Y171.936 E.22485
G1 X209.869 Y173.701 E.27031
G1 X208.42 Y175.161 E.2443
G1 X206.76 Y176.54 E.2563
G1 X205.644 Y177.327 E.16218
G1 X203.779 Y178.429 E.25727
G1 X201.815 Y179.343 E.25728
G1 X199.927 Y180.014 E.23797
G1 X197.934 Y180.52 E.24421
G1 X196.597 Y180.752 E.16116
G1 X194.439 Y180.951 E.25738
G1 X56.507 Y180.973 E16.38152
G1 X54.207 Y180.851 E.27354
G1 X52.066 Y180.52 E.2573
G1 X49.968 Y179.981 E.25726
G1 X47.933 Y179.238 E.25729
G1 X45.98 Y178.3 E.25731
G1 X44.129 Y177.175 E.25725
G1 X42.396 Y175.873 E.25744
G1 X40.26 Y173.841 E.35014
G1 X39.355 Y172.794 E.16436
G1 X38.075 Y171.046 E.25731
G1 X36.973 Y169.181 E.25727
G1 X36.164 Y167.469 E.22488
G1 X35.421 Y165.434 E.25729
G1 X35.059 Y164.126 E.16118
G1 X34.65 Y161.999 E.25724
G1 X34.451 Y159.841 E.25738
G1 X34.429 Y51.105 E12.91405
G1 X34.551 Y48.805 E.27354
G1 X34.882 Y46.664 E.2573
G1 X35.421 Y44.566 E.25726
G1 X36.164 Y42.531 E.25729
G1 X37.102 Y40.578 E.25731
G1 X38.227 Y38.727 E.25725
G1 X39.493 Y37.042 E.25031
G1 X40.085 Y37.505 F10800
G1 F1440
G1 X40.599 Y36.847 E.09916
G1 X42.073 Y35.357 E.24892
G1 X43.686 Y34.018 E.24897
G1 X45.423 Y32.843 E.24906
G1 X46.566 Y32.197 E.15593
G1 X48.442 Y31.323 E.2458
G1 X50.42 Y30.628 E.249
G1 X52.223 Y30.176 E.22076
G1 X53.491 Y29.956 E.15284
G1 X55.578 Y29.763 E.24892
G1 X193.612 Y29.743 E16.39363
G1 X195.705 Y29.857 E.24894
G1 X197.543 Y30.13 E.22069
G1 X199.58 Y30.628 E.24905
G1 X201.558 Y31.323 E.249
G1 X203.458 Y32.209 E.24898
G1 X204.6 Y32.858 E.156
G1 X206.314 Y34.018 E.2458
G1 X207.927 Y35.357 E.24897
G1 X209.401 Y36.847 E.24892
G1 X210.722 Y38.475 E.24899
G1 X211.755 Y40.021 E.22083
G1 X212.753 Y41.864 E.24892
M73 Q0 S128
G1 X213.566 Y43.796 E.24894
G1 X213.97 Y45.018 E.15286
G1 X214.421 Y46.821 E.22073
G1 X214.741 Y48.893 E.249
G1 X214.857 Y51.105 E.26307
G1 X214.824 Y160.062 E12.9403
G1 X214.641 Y161.911 E.22067
G1 X214.244 Y163.97 E.24904
G1 X213.647 Y165.979 E.24891
G1 X212.855 Y167.921 E.24909
G1 X211.877 Y169.775 E.24895
G1 X210.722 Y171.525 E.24903
G1 X209.401 Y173.153 E.24899
G1 X207.927 Y174.643 E.24892
G1 X206.314 Y175.982 E.24897
G1 X204.577 Y177.157 E.24906
G1 X203.458 Y177.791 E.15275
G1 X201.558 Y178.677 E.24898
G1 X199.808 Y179.303 E.22074
G1 X197.777 Y179.824 E.24902
G1 X196.509 Y180.044 E.15284
G1 X194.422 Y180.237 E.24892
G1 X56.507 Y180.259 E16.3795
G1 X54.295 Y180.143 E.26307
G1 X52.223 Y179.824 E.24898
G1 X50.192 Y179.303 E.24902
G1 X48.222 Y178.586 E.24898
G1 X46.332 Y177.679 E.24898
G1 X43.899 Y176.14 E.34191
G1 X42.249 Y174.803 E.25222
G1 X40.759 Y173.329 E.24892
G1 X39.42 Y171.716 E.24897
G1 X38.679 Y170.664 E.15282
G1 X37.611 Y168.86 E.24898
G1 X36.725 Y166.96 E.24898
G1 X36.03 Y164.982 E.249
G1 X35.579 Y163.179 E.22073
G1 X35.259 Y161.107 E.249
G1 X35.165 Y159.824 E.15278
G1 X35.143 Y51.105 E12.91203
G1 X35.259 Y48.893 E.26307
G1 X35.579 Y46.821 E.249
G1 X36.099 Y44.79 E.24899
G1 X36.817 Y42.82 E.24902
G1 X37.723 Y40.93 E.24892
G1 X38.827 Y39.116 E.2522
G1 X40.048 Y37.552 E.23565
G1 X40.61 Y37.991 F10800
G1 F1440
G1 X41.139 Y37.314 E.10204
G1 X42.565 Y35.874 E.24069
G1 X44.125 Y34.581 E.24064
G1 X45.805 Y33.447 E.24073
G1 X46.887 Y32.835 E.14764
G1 X48.699 Y31.99 E.23745
G1 X50.416 Y31.375 E.21661
G1 X52.379 Y30.873 E.24064
G1 X53.578 Y30.665 E.14453
G1 X55.595 Y30.477 E.24059
G1 X193.594 Y30.457 E16.38948
G1 X195.618 Y30.566 E.24073
M73 P0 R121
G1 X197.621 Y30.873 E.24066
G1 X199.584 Y31.375 E.24064
G1 X201.301 Y31.99 E.21661
G1 X203.137 Y32.847 E.24064
G1 X204.218 Y33.461 E.14765
G1 X205.875 Y34.581 E.23753
G1 X207.435 Y35.874 E.24064
G1 X208.861 Y37.314 E.24069
G1 X210.138 Y38.886 E.24054
G1 X211.151 Y40.403 E.21664
G1 X212.115 Y42.185 E.24062
G1 X212.9 Y44.053 E.24065
G1 X213.498 Y45.989 E.24065
G1 X213.898 Y47.948 E.23746
G1 X214.052 Y49.182 E.14769
G1 X214.142 Y51.105 E.22864
G1 X214.111 Y160.01 E12.93412
G1 X213.933 Y161.824 E.21647
G1 X213.547 Y163.813 E.24063
G1 X212.968 Y165.755 E.24067
G1 X212.202 Y167.631 E.24066
G1 X211.256 Y169.423 E.24066
G1 X210.138 Y171.113 E.24066
G1 X208.861 Y172.686 E.24063
G1 X207.435 Y174.126 E.24069
G1 X205.875 Y175.419 E.24064
G1 X204.195 Y176.553 E.24073
G1 X203.137 Y177.153 E.14445
G1 X201.301 Y178.01 E.24064
G1 X199.584 Y178.625 E.21661
G1 X197.621 Y179.127 E.24064
G1 X196.422 Y179.335 E.14453
G1 X194.404 Y179.523 E.24071
G1 X56.507 Y179.545 E16.37736
G1 X54.382 Y179.434 E.25272
M73 P1 R121
M73 Q1 S128
G1 X52.379 Y179.127 E.24066
G1 X50.416 Y178.625 E.24064
G1 X48.512 Y177.933 E.2406
G1 X46.684 Y177.057 E.24074
G1 X44.311 Y175.556 E.33348
G1 X42.716 Y174.263 E.24386
G1 X41.276 Y172.837 E.24069
G1 X39.983 Y171.277 E.24064
G1 X39.282 Y170.282 E.14455
G1 X38.249 Y168.539 E.24063
G1 X37.392 Y166.703 E.24064
G1 X36.718 Y164.792 E.24066
G1 X36.275 Y163.023 E.21658
G1 X35.968 Y161.02 E.24066
G1 X35.879 Y159.806 E.14457
G1 X35.858 Y51.105 E12.90989
G1 X35.968 Y48.98 E.25271
G1 X36.275 Y46.977 E.24066
G1 X36.777 Y45.014 E.24064
G1 X37.469 Y43.109 E.24071
G1 X38.345 Y41.282 E.24064
G1 X39.411 Y39.527 E.24387
G1 X40.573 Y38.039 E.22422
G1 X41.135 Y38.478 F10800
G1 F1440
G1 X41.68 Y37.78 E.10517
G1 X43.058 Y36.391 E.23237
G1 X44.565 Y35.144 E.23231
G1 X46.187 Y34.05 E.23236
G1 X47.184 Y33.485 E.1361
G1 X48.956 Y32.656 E.23234
G1 X50.64 Y32.053 E.21244
G1 X52.536 Y31.57 E.23237
G1 X53.666 Y31.374 E.13621
G1 X55.613 Y31.191 E.23225
G1 X193.577 Y31.171 E16.38532
G1 X195.53 Y31.275 E.23228
G1 X197.299 Y31.537 E.21239
G1 X199.199 Y32.005 E.2324
G1 X201.044 Y32.656 E.23236
G1 X202.816 Y33.485 E.23234
G1 X203.836 Y34.064 E.1393
G1 X205.435 Y35.144 E.22916
G1 X206.942 Y36.391 E.23231
G1 X208.32 Y37.78 E.23237
G1 X209.554 Y39.298 E.23234
G1 X210.548 Y40.785 E.21243
G1 X211.477 Y42.506 E.23227
G1 X212.234 Y44.31 E.23235
G1 X212.809 Y46.18 E.23235
G1 X213.195 Y48.07 E.2291
G1 X213.34 Y49.235 E.13943
G1 X213.428 Y51.105 E.22234
G1 X213.399 Y159.957 E12.92783
G1 X213.224 Y161.737 E.21242
G1 X212.85 Y163.657 E.23232
G1 X212.29 Y165.531 E.23229
G1 X211.549 Y167.342 E.23239
G1 X210.634 Y169.071 E.23233
G1 X209.554 Y170.702 E.23232
G1 X208.32 Y172.22 E.23234
G1 X206.942 Y173.609 E.23237
G1 X205.435 Y174.856 E.23231
G1 X203.813 Y175.95 E.23236
G1 X202.816 Y176.515 E.1361
G1 X201.044 Y177.344 E.23234
G1 X199.36 Y177.947 E.21244
G1 X197.464 Y178.43 E.23237
G1 X196.335 Y178.626 E.13609
G1 X194.387 Y178.809 E.23237
G1 X56.507 Y178.83 E16.37534
G1 X54.47 Y178.725 E.24225
M73 Q1 S127
G1 X52.536 Y178.43 E.23235
G1 X50.64 Y177.947 E.23237
G1 X48.801 Y177.28 E.23233
G1 X47.036 Y176.436 E.23235
G1 X44.722 Y174.972 E.32521
G1 X43.182 Y173.722 E.23557
G1 X41.793 Y172.344 E.23237
G1 X40.546 Y170.837 E.23231
G1 X39.886 Y169.9 E.13612
G1 X38.887 Y168.218 E.23234
G1 X38.058 Y166.446 E.23234
G1 X37.407 Y164.601 E.23236
G1 X36.972 Y162.866 E.21244
G1 X36.677 Y160.932 E.23235
G1 X36.593 Y159.789 E.13611
G1 X36.572 Y51.105 E12.90787
G1 X36.677 Y49.068 E.24225
G1 X36.972 Y47.134 E.23235
G1 X37.455 Y45.238 E.23237
G1 X38.122 Y43.399 E.23233
G1 X38.966 Y41.634 E.23235
G1 X39.995 Y39.938 E.2356
G1 X41.098 Y38.525 E.21289
G1 X41.661 Y38.964 F10800
G1 F1440
G1 X42.221 Y38.247 E.10805
G1 X43.55 Y36.908 E.22406
G1 X45.004 Y35.707 E.22398
G1 X46.569 Y34.653 E.22409
G1 X47.53 Y34.111 E.13103
G1 X49.213 Y33.322 E.22076
G1 X50.992 Y32.693 E.2241
G1 X52.692 Y32.267 E.20814
G1 X53.753 Y32.083 E.12789
G1 X55.63 Y31.905 E.22392
G1 X193.559 Y31.885 E16.38116
G1 X195.443 Y31.984 E.22406
G1 X197.177 Y32.241 E.20819
G1 X199.008 Y32.693 E.22399
G1 X200.787 Y33.322 E.2241
G1 X202.495 Y34.123 E.22405
G1 X203.431 Y34.653 E.12775
G1 X204.996 Y35.707 E.22409
G1 X206.45 Y36.908 E.22398
G1 X207.779 Y38.247 E.22406
G1 X208.97 Y39.709 E.22396
G1 X209.945 Y41.167 E.20831
G1 X210.839 Y42.827 E.22392
G1 X211.567 Y44.567 E.22401
G1 X211.905 Y45.589 E.12784
G1 X212.357 Y47.421 E.2241
G1 X212.627 Y49.288 E.22404
G1 X212.714 Y51.105 E.21604
G1 X212.687 Y159.904 E12.92153
G1 X212.496 Y161.781 E.22407
G1 X212.121 Y163.63 E.22407
G1 X211.567 Y165.433 E.22401
G1 X210.896 Y167.052 E.20814
G1 X210.013 Y168.719 E.22404
G1 X208.971 Y170.291 E.22399
G1 X207.779 Y171.753 E.22403
G1 X206.45 Y173.092 E.22406
G1 X204.996 Y174.293 E.22398
G1 X204.116 Y174.913 E.12785
G1 X202.612 Y175.814 E.20822
G1 X200.91 Y176.627 E.22402
G1 X199.162 Y177.26 E.22079
G1 X198.098 Y177.556 E.13116
G1 X196.247 Y177.917 E.22398
G1 X194.369 Y178.096 E.22405
G1 X56.507 Y178.116 E16.3732
G1 X54.557 Y178.016 E.2319
M73 P1 R120
G1 X52.692 Y177.733 E.22403
G1 X50.864 Y177.268 E.22402
G1 X49.09 Y176.627 E.22402
G1 X47.388 Y175.815 E.22396
G1 X45.133 Y174.388 E.31694
G1 X43.649 Y173.181 E.22718
G1 X42.31 Y171.852 E.22406
G1 X41.109 Y170.398 E.22398
G1 X40.489 Y169.518 E.12785
G1 X39.525 Y167.897 E.22399
G1 X38.775 Y166.312 E.20825
G1 X38.134 Y164.538 E.22402
G1 X37.846 Y163.5 E.12794
G1 X37.485 Y161.649 E.22398
G1 X37.307 Y159.771 E.22404
G1 X37.286 Y51.105 E12.90574
G1 X37.386 Y49.155 E.2319
G1 X37.669 Y47.29 E.22403
G1 X38.134 Y45.462 E.22402
G1 X38.775 Y43.688 E.22402
G1 X39.588 Y41.986 E.22402
G1 X40.578 Y40.35 E.22711
G1 X41.624 Y39.012 E.2017
; printing object uberamp1-pasting-plate.stl id:0 copy 0
;WIPE_START
G1 F8640
G1 X41.661 Y38.964 E-.11995
G1 X41.873 Y38.693 E-.68005
;WIPE_END
G1 X53.543 Y173.796 F10800
G1 E.8 F18000
;TYPE:Perimeter
;WIDTH:0.8
G1 F1440
G1 X52.816 Y173.632 E.08851
G1 X52.097 Y173.433 E.0886
G1 X51.389 Y173.199 E.08856
G1 X50.693 Y172.931 E.08858
G1 X50.012 Y172.629 E.08848
G1 X49.345 Y172.294 E.08865
G1 X48.697 Y171.926 E.0885
G1 X48.067 Y171.527 E.08857
G1 X47.457 Y171.098 E.08857
G1 X46.869 Y170.639 E.08859
G1 X46.304 Y170.152 E.08859
G1 X45.764 Y169.638 E.08854
G1 X45.25 Y169.098 E.08854
G1 X44.763 Y168.533 E.08859
G1 X44.304 Y167.945 E.08859
G1 X43.875 Y167.335 E.08857
G1 X43.476 Y166.705 E.08857
G1 X43.108 Y166.057 E.0885
G1 X42.773 Y165.391 E.08854
G1 X42.471 Y164.709 E.08858
G1 X42.203 Y164.013 E.08858
G1 X41.969 Y163.305 E.08856
G1 X41.77 Y162.586 E.0886
G1 X41.606 Y161.859 E.08851
G1 X41.479 Y161.124 E.08859
G1 X41.388 Y160.384 E.08855
G1 X41.333 Y159.64 E.0886
G1 X41.314 Y158.879 E.09041
G1 X41.314 Y51.121 E12.79789
G1 X41.333 Y50.36 E.09041
G1 X41.388 Y49.616 E.0886
G1 X41.479 Y48.876 E.08855
G1 X41.606 Y48.141 E.08859
G1 X41.77 Y47.414 E.08851
G1 X41.969 Y46.695 E.0886
G1 X42.203 Y45.987 E.08856
G1 X42.471 Y45.291 E.08858
G1 X42.773 Y44.609 E.08858
G1 X43.108 Y43.943 E.08854
G1 X43.476 Y43.295 E.0885
G1 X43.887 Y42.647 E.09113
G1 X44.304 Y42.055 E.086
G1 X44.763 Y41.467 E.08859
G1 X45.25 Y40.902 E.08859
G1 X45.764 Y40.362 E.08854
G1 X46.304 Y39.848 E.08854
G1 X46.869 Y39.361 E.08859
G1 X47.457 Y38.902 E.08859
G1 X48.067 Y38.473 E.08857
G1 X48.697 Y38.074 E.08857
G1 X49.345 Y37.706 E.0885
G1 X50.012 Y37.371 E.08865
G1 X50.693 Y37.069 E.08848
G1 X51.389 Y36.801 E.08858
G1 X52.097 Y36.567 E.08856
G1 X52.816 Y36.368 E.0886
G1 X53.543 Y36.204 E.08851
G1 X54.278 Y36.077 E.08859
G1 X55.018 Y35.986 E.08855
G1 X55.762 Y35.931 E.0886
G1 X56.523 Y35.912 E.09041
G1 X193.312 Y35.913 E16.24576
G1 X194.61 Y35.958 E.15425
M73 P2 R120
G1 X195.352 Y36.031 E.08855
G1 X196.089 Y36.141 E.0885
G1 X196.821 Y36.286 E.08863
G1 X197.544 Y36.467 E.08852
G1 X198.257 Y36.684 E.08851
G1 X198.959 Y36.935 E.08854
G1 X199.648 Y37.22 E.08855
G1 X200.322 Y37.539 E.08856
G1 X200.979 Y37.89 E.08847
G1 X201.619 Y38.274 E.08864
G1 X202.238 Y38.688 E.08844
G1 X202.837 Y39.132 E.08855
G1 X203.413 Y39.605 E.08852
G1 X203.966 Y40.105 E.08854
G1 X204.493 Y40.632 E.08851
G1 X204.993 Y41.185 E.08854
G1 X205.466 Y41.761 E.08852
G1 X205.91 Y42.36 E.08855
G1 X206.325 Y42.98 E.08861
G1 X206.708 Y43.619 E.08848
G1 X207.059 Y44.276 E.08847
G1 X207.378 Y44.95 E.08856
G1 X207.663 Y45.639 E.08855
G1 X207.914 Y46.341 E.08854
G1 X208.131 Y47.054 E.08851
G1 X208.312 Y47.777 E.08852
G1 X208.457 Y48.509 E.08863
G1 X208.567 Y49.246 E.0885
G1 X208.64 Y49.988 E.08855
G1 X208.686 Y51.31 E.1571
G1 X208.686 Y158.879 E12.77545
G1 X208.667 Y159.64 E.09041
G1 X208.612 Y160.384 E.0886
G1 X208.521 Y161.124 E.08855
G1 X208.394 Y161.859 E.08859
G1 X208.23 Y162.586 E.08851
G1 X208.031 Y163.305 E.0886
G1 X207.797 Y164.013 E.08856
G1 X207.529 Y164.709 E.08858
G1 X207.227 Y165.391 E.08858
M73 Q2 S127
G1 X206.892 Y166.057 E.08854
G1 X206.524 Y166.705 E.0885
G1 X206.125 Y167.335 E.08857
G1 X205.696 Y167.945 E.08857
G1 X205.237 Y168.533 E.08859
G1 X204.75 Y169.098 E.08859
G1 X204.236 Y169.638 E.08854
G1 X203.696 Y170.152 E.08854
G1 X203.131 Y170.639 E.08859
G1 X202.543 Y171.098 E.08859
G1 X201.933 Y171.527 E.08857
G1 X201.303 Y171.926 E.08857
G1 X200.655 Y172.294 E.0885
G1 X199.988 Y172.629 E.08865
G1 X199.307 Y172.931 E.08848
G1 X198.611 Y173.199 E.08858
G1 X197.903 Y173.433 E.08856
G1 X197.184 Y173.632 E.0886
G1 X196.457 Y173.796 E.08851
G1 X195.722 Y173.923 E.08859
G1 X194.982 Y174.014 E.08855
G1 X194.238 Y174.069 E.0886
G1 X193.477 Y174.088 E.09041
G1 X56.523 Y174.088 E16.26536
G1 X55.762 Y174.069 E.09041
M73 Q2 S126
G1 X55.018 Y174.014 E.0886
G1 X54.278 Y173.923 E.08855
G1 X53.602 Y173.806 E.08148
G1 X53.404 Y174.496 F10800
;TYPE:External perimeter
G1 F1440
G1 X52.642 Y174.325 E.09275
G1 X51.89 Y174.117 E.09266
G1 X51.148 Y173.872 E.0928
G1 X50.42 Y173.591 E.09268
